X:1
T:Amor sciolt'e lo laccio
T:Luca Marenzio
T:Source : Canzonette alla Napolitana a tre voci---Venetia---G.Visconti---1587. Editor : André Vierendeels (28/04/17).
T:Notes : Original clefs : C1, C1, F3 Editorial accidentals above the staff "Seconda impressione" Music collected by Attilio Gualtieri
T:Amor sciolt'e lo laccio
T:©
T:©
C:Luca Marenzio
Z:©
%%score [ 1 2 3 ]
L:1/8
Q:1/4=120
M:4/4
K:C
V:1 treble nm="Soprano 1" snm="S 1"
V:2 treble nm="Soprano 2" snm="S 2"
V:3 bass nm="Bass" snm="B"
V:1
"^1)" e8 | e8 | f2 fe d2 c2 | B2 B4 c2 | d2 e2 e4 |[M:2/4] d4 ::[M:4/4] z2 c2 d3 g | f2 d2 e4 | %8
w: A-|mor|sciolt' è lo lac- cio,|ne piu nel|foc' ag- giac-|cio,|ma son fe-|li- c'e vi-|
w: Già|rot-|ta'è la ca- te- na,|ne pa- to'ho-|ra piu pe-|na,|ma vi- vo|lie- to fuo-|
 e4 g2 fe | d2 e2 f3 e | d2 c2 B4- | B4 !fermata!A4 :| %12
w: vo, fra mil- le|gio- ie del tuo'a-|mor hor pri-|* vo.|
w: re, del car- ce-|re'a- mo- ro- so'e|sen- z'a- do-|* ra.|
V:2
"^2)""^1)" ^c8 | ^c8 | d2 dc B2 A2 | ^G2 G4 A2 | B2 ^c2 c4 |[M:2/4] d4 ::[M:4/4] z2 A2 B3 G | %7
w: A-|mor|sciolt' è lo lac- cio,|ne piu nel|foc' ag- giac-|cio,|ma son fe-|
w: De|gli'oc-|chi tuoi la lu- ce,|non piu'à lan-|guir m'ad- du-|ce,|ma le lu-|
 A2 B2 c4 | c4 e2 dc | B2 ^c2 d3 c | B2 A4 ^G^F | ^G4 !fermata!A4 :| %12
w: li- c'e vi-|vo, fra mil- le|gio- ie del tuo'a-|mor hor _ _|pri- vo.|
w: ci se- re-|ne, hor d'al- tra,|ra- dal- cis- scon|le mie _ _|pe- ne.|
V:3
"^3)""^1)""^4)" A,8 | A,8 | D,2 D,E, G,2 A,2 | E,2 E,4 A,2 | G,2 A,2 A,4 |[M:2/4] D,4 :: %6
w: A-|mor|sciolt' è lo lac- cio,|ne piu nel|foc' ag- giac-|cio,|
w: Hor|ch'io|son fuor de gua- i,|nè piu mar-|tir mi da-|i,|
[M:4/4] A,4 G,3 E, | F,2 G,2 C,4 | C,4 C2 _B,A, | G,2 A,2 D,3 D, | D,2 F,2 E,4- | %11
w: ma son fe-|li- c'e vi|vo, fra mil- le|gio- ie del tuo'a-|mor hor pri-|
w: can- tan- d'o-|gn'hor vo di-|re, sciol- to'è lo|lac- cio, che mi|fea mo- ri-|
 E,4 !fermata!A,,4 :| %12
w: * vo.|
w: * re.|

